svg/u1f51a.svg

<svg viewBox="0 0 128 128" xmlns="http://www.w3.org/2000/svg">
  <g>
    <path d="M116,4H12c-4.42,0-8,3.58-8,8v104c0,4.42,3.58,8,8,8h104c4.42,0,8-3.58,8-8V12 C124,7.58,120.42,4,116,4z" fill="#427687"/>
    <path d="M109.7,4H11.5C7.37,4.03,4.03,7.37,4,11.5v97.9c-0.01,4.14,3.34,7.49,7.48,7.5c0.01,0,0.01,0,0.02,0 h98.1c4.14,0.01,7.49-3.34,7.5-7.48c0-0.01,0-0.01,0-0.02V11.5c0.09-4.05-3.13-7.41-7.18-7.5C109.85,4,109.77,4,109.7,4z" fill="#8CAFBF"/>
    <path d="M47.4,71l-24-24c-1.66-1.46-1.82-3.99-0.35-5.65c0.11-0.13,0.23-0.24,0.35-0.35l24-24 c1.68-1.44,4.2-1.24,5.64,0.44c0.61,0.71,0.95,1.62,0.96,2.56v14c0,1.1,0.9,2,2,2h46c2.21,0,4,1.79,4,4v8c0,2.21-1.79,4-4,4H56 c-1.1,0-2,0.9-2,2v14c-0.02,2.21-1.83,3.98-4.04,3.96C49.02,71.95,48.11,71.61,47.4,71z" fill="#FAFAFA"/>
    <path d="M39.7,12.9c0-2.3-1.6-3-10.8-2.7c-7.7,0.3-11.5,1.2-13.8,4 s-2.9,8.5-3,15.3c0,4.8,0,9.3,2.5,9.3c3.4,0,3.4-7.9,6.2-12.3C26.2,17.8,39.7,15.9,39.7,12.9z" opacity="0.5" fill="#B4E1ED" enable-background="new "/>
  </g>
  <g>
    <path d="M41.28,111.67H25.25V83.83h16.03v4.84H31.15v6.11h9.43v4.84h-9.43v7.18h10.13V111.67z" fill="#FAFAFA"/>
    <path d="M73.93,111.67h-7.5L54.32,90.61h-0.17c0.24,3.72,0.36,6.37,0.36,7.96v13.1h-5.27V83.83h7.45 l12.09,20.85h0.13c-0.19-3.62-0.29-6.18-0.29-7.67V83.83h5.31V111.67z" fill="#FAFAFA"/>
    <path d="M104.04,97.48c0,4.58-1.3,8.09-3.91,10.53c-2.61,2.44-6.38,3.66-11.3,3.66h-7.88V83.83h8.74 c4.54,0,8.07,1.2,10.59,3.6S104.04,93.18,104.04,97.48z M97.91,97.64c0-5.98-2.64-8.97-7.92-8.97h-3.14v18.13h2.53 C95.06,106.8,97.91,103.74,97.91,97.64z" fill="#FAFAFA"/>
  </g>
</svg>

<svg viewBox="0 0 128 128" xmlns="http://www.w3.org/2000/svg">
  <defs/>
  <path d="M116,4 L12,4 C7.58,4 4,7.58 4,12 L4,116 C4,120.42 7.58,124 12,124 L116,124 C120.42,124 124,120.42 124,116 L124,12 C124,7.58 120.42,4 116,4 Z" fill="#427687"/>
  <path d="M109.7,4 L11.5,4 C7.37,4.03 4.03,7.37 4,11.5 L4,109.4 C3.99,113.54 7.34,116.89 11.48,116.9 C11.49,116.9 11.49,116.9 11.5,116.9 L109.6,116.9 C113.74,116.91 117.09,113.56 117.1,109.42 C117.1,109.41 117.1,109.41 117.1,109.4 L117.1,11.5 C117.19,7.45 113.97,4.09 109.92,4 C109.85,4 109.77,4 109.7,4 Z" fill="#8CAFBF"/>
  <path d="M47.4,71 L23.4,47 C21.74,45.54 21.58,43.01 23.05,41.35 C23.16,41.22 23.28,41.11 23.4,41 L47.4,17 C49.08,15.56 51.6,15.76 53.04,17.44 C53.65,18.15 53.99,19.06 54,20 L54,34 C54,35.1 54.9,36 56,36 L102,36 C104.21,36 106,37.79 106,40 L106,48 C106,50.21 104.21,52 102,52 L56,52 C54.9,52 54,52.9 54,54 L54,68 C53.98,70.21 52.17,71.98 49.96,71.96 C49.02,71.95 48.11,71.61 47.4,71 Z" fill="#FAFAFA"/>
  <path d="M39.7,12.9 C39.7,10.6 38.1,9.9 28.9,10.2 C21.2,10.5 17.4,11.4 15.1,14.2 C12.8,17 12.2,22.7 12.1,29.5 C12.1,34.3 12.1,38.8 14.6,38.8 C18,38.8 18,30.9 20.8,26.5 C26.2,17.8 39.7,15.9 39.7,12.9 Z" fill="#B4E1ED" opacity="0.5"/>
  <path d="M41.28,111.67 L25.25,111.67 L25.25,83.83 L41.28,83.83 L41.28,88.67 L31.15,88.67 L31.15,94.78 L40.58,94.78 L40.58,99.62 L31.15,99.62 L31.15,106.8 L41.28,106.8 L41.28,111.67 Z" fill="#FAFAFA"/>
  <path d="M73.93,111.67 L66.43,111.67 L54.32,90.61 L54.15,90.61 C54.39,94.33 54.51,96.98 54.51,98.57 L54.51,111.67 L49.24,111.67 L49.24,83.83 L56.69,83.83 L68.78,104.68 L68.91,104.68 C68.72,101.06 68.62,98.5 68.62,97.01 L68.62,83.83 L73.93,83.83 L73.93,111.67 Z" fill="#FAFAFA"/>
  <path d="M104.04,97.48 C104.04,102.06 102.74,105.57 100.13,108.01 C97.52,110.45 93.75,111.67 88.83,111.67 L80.95,111.67 L80.95,83.83 L89.69,83.83 C94.23,83.83 97.76,85.03 100.28,87.43 C102.8,89.83 104.04,93.18 104.04,97.48 Z M97.91,97.64 C97.91,91.66 95.27,88.67 89.99,88.67 L86.85,88.67 L86.85,106.8 L89.38,106.8 C95.06,106.8 97.91,103.74 97.91,97.64 Z" fill="#FAFAFA"/>
</svg>
